azure-patterns/svg-data-cloud.svg

<svg xmlns="http://www.w3.org/2000/svg" viewBox="0 0 29 31">
                                
                            
  <path d="M2.01529 23.1433C2.01529 23.3319 2.08141 23.5127 2.21365 23.6857C2.34589 23.8586 2.50722 24.0211 2.69764 24.1731C2.88806 24.3251 3.08642 24.4561 3.29271 24.5661C3.499 24.6762 3.67619 24.7627 3.8243 24.8256C3.88777 25.6326 4.07291 26.4188 4.3797 27.1839C3.9248 27.0372 3.44081 26.8485 2.92773 26.6179C2.41465 26.3873 1.94124 26.1069 1.5075 25.7768C1.07377 25.4466 0.714081 25.064 0.428449 24.629C0.142816 24.1941 0 23.6988 0 23.1433V5.03112C0 4.528 0.121658 4.06943 0.364975 3.65541C0.608291 3.24139 0.928305 2.87191 1.32502 2.54699C1.72173 2.22206 2.17398 1.93643 2.68177 1.69012C3.18956 1.4438 3.70793 1.22893 4.23688 1.0455C4.76583 0.862074 5.28155 0.712711 5.78406 0.597413C6.28656 0.482119 6.73352 0.393023 7.12494 0.330136C8.45789 0.110021 9.80142 -3.50209e-05 11.1555 -3.50209e-05C12.5096 -3.50209e-05 13.8532 0.110021 15.1861 0.330136C15.5775 0.393023 16.0245 0.482119 16.527 0.597413C17.0295 0.712711 17.5452 0.862074 18.0742 1.0455C18.6031 1.22893 19.1241 1.4438 19.6372 1.69012C20.1503 1.93643 20.6052 2.22206 21.0019 2.54699C21.3986 2.87191 21.7186 3.24139 21.962 3.65541C22.2053 4.06943 22.3269 4.528 22.3269 5.03112V14.8733C21.6816 14.5169 21.0046 14.2549 20.2958 14.0872V8.01837C19.6822 8.3957 18.9946 8.71539 18.2329 8.97743C17.4712 9.23947 16.6857 9.45172 15.8764 9.61419C15.0671 9.77665 14.2552 9.89195 13.4406 9.96008C12.626 10.0282 11.8643 10.0623 11.1555 10.0623C10.4362 10.0623 9.67183 10.0282 8.86254 9.96008C8.05325 9.89195 7.24395 9.77665 6.43466 9.61419C5.62537 9.45172 4.83988 9.23947 4.0782 8.97743C3.31651 8.71539 2.62888 8.3957 2.01529 8.01837V23.1433ZM11.1555 2.01243C10.5525 2.01243 9.86225 2.04387 9.0847 2.10676C8.30714 2.16965 7.5243 2.27709 6.73616 2.42907C5.94803 2.58105 5.19163 2.78806 4.46697 3.0501C3.74231 3.31214 3.13667 3.64231 2.65003 4.04061C2.50193 4.15591 2.35911 4.30003 2.22158 4.47298C2.08406 4.64592 2.01529 4.83197 2.01529 5.03112C2.01529 5.23027 2.08406 5.41632 2.22158 5.58926C2.35911 5.76221 2.50193 5.90633 2.65003 6.02163C3.13667 6.41993 3.74231 6.7501 4.46697 7.01214C5.19163 7.27418 5.94803 7.48119 6.73616 7.63317C7.5243 7.78515 8.30714 7.89259 9.0847 7.95548C9.86225 8.01837 10.5525 8.04981 11.1555 8.04981C11.7585 8.04981 12.4488 8.01837 13.2264 7.95548C14.0039 7.89259 14.7868 7.78515 15.5749 7.63317C16.363 7.48119 17.1168 7.27418 17.8362 7.01214C18.5555 6.7501 19.1585 6.41993 19.6452 6.02163C19.7933 5.90633 19.9387 5.76221 20.0815 5.58926C20.2244 5.41632 20.2958 5.23027 20.2958 5.03112C20.2958 4.83197 20.2244 4.64592 20.0815 4.47298C19.9387 4.30003 19.7933 4.15591 19.6452 4.04061C19.1585 3.64231 18.5555 3.31214 17.8362 3.0501C17.1168 2.78806 16.363 2.58105 15.5749 2.42907C14.7868 2.27709 14.0039 2.16965 13.2264 2.10676C12.4488 2.04387 11.7585 2.01243 11.1555 2.01243ZM24.0249 20.1717C24.649 20.2556 25.2309 20.4443 25.7704 20.7378C26.3099 21.0312 26.7754 21.4007 27.1668 21.8462C27.5582 22.2916 27.865 22.7974 28.0872 23.3634C28.3093 23.9294 28.4204 24.5268 28.4204 25.1557C28.4204 25.8475 28.2855 26.5 28.0158 27.1132C27.746 27.7263 27.381 28.2609 26.9208 28.7168C26.4607 29.1728 25.9238 29.5318 25.3102 29.7938C24.6966 30.0559 24.0407 30.1869 23.3425 30.1869H12.1711C11.3248 30.1869 10.534 30.0297 9.79878 29.7152C9.06354 29.4008 8.41822 28.9684 7.86282 28.4181C7.30743 27.8678 6.87104 27.2285 6.55368 26.5C6.23631 25.7715 6.07762 24.988 6.07762 24.1495C6.07762 23.3215 6.23631 22.5406 6.55368 21.8069C6.87104 21.0732 7.30743 20.4312 7.86282 19.8809C8.41822 19.3306 9.06354 18.8982 9.79878 18.5838C10.534 18.2693 11.3248 18.1121 12.1711 18.1121C12.4144 18.1121 12.6551 18.1252 12.8931 18.1514C13.1312 18.1776 13.3665 18.2169 13.5993 18.2693C14.1705 17.5776 14.8661 17.043 15.686 16.6657C16.5058 16.2883 17.3654 16.0997 18.2646 16.0997C18.9099 16.0997 19.5341 16.1966 20.1371 16.3905C20.7401 16.5844 21.2955 16.8596 21.8033 17.2159C22.3111 17.5723 22.7554 18.0021 23.1362 18.5052C23.5171 19.0083 23.8133 19.5638 24.0249 20.1717ZM23.3425 28.1744C23.7657 28.1744 24.1624 28.0958 24.5326 27.9386C24.9029 27.7814 25.2256 27.5665 25.5006 27.294C25.7757 27.0215 25.9925 26.7018 26.1512 26.3349C26.3099 25.9681 26.3893 25.575 26.3893 25.1557C26.3893 24.7365 26.3099 24.3434 26.1512 23.9766C25.9925 23.6097 25.7757 23.29 25.5006 23.0175C25.2256 22.745 24.9029 22.5301 24.5326 22.3729C24.1624 22.2157 23.7657 22.137 23.3425 22.137H22.3269C22.3269 21.5815 22.2211 21.0601 22.0096 20.5727C21.798 20.0853 21.5071 19.6582 21.1368 19.2913C20.7665 18.9244 20.3354 18.6362 19.8435 18.4266C19.3516 18.2169 18.8253 18.1121 18.2646 18.1121C17.8309 18.1121 17.4156 18.1776 17.0189 18.3086C16.6222 18.4397 16.2572 18.6231 15.924 18.8589C15.5908 19.0948 15.2946 19.3778 15.0354 19.7079C14.7762 20.0381 14.5778 20.4076 14.4403 20.8164C13.7632 20.3552 13.0069 20.1246 12.1711 20.1246C11.6104 20.1246 11.0841 20.2294 10.5922 20.439C10.1003 20.6487 9.66918 20.9369 9.29892 21.3038C8.92866 21.6706 8.63773 22.0977 8.42615 22.5851C8.21458 23.0725 8.10879 23.594 8.10879 24.1495C8.10879 24.705 8.21458 25.2265 8.42615 25.7139C8.63773 26.2013 8.92866 26.6284 9.29892 26.9953C9.66918 27.3621 10.1003 27.6503 10.5922 27.86C11.0841 28.0696 11.6104 28.1744 12.1711 28.1744H23.3425Z"></path>
</svg>

<svg xmlns="http://www.w3.org/2000/svg" viewBox="0 0 29 31"><path d="M2.015 23.143c0 .189.066.37.199.543.132.173.293.335.484.487.19.152.388.283.595.393.206.11.383.197.531.26.064.807.249 1.593.556 2.358a14.18 14.18 0 0 1-1.452-.566 7.228 7.228 0 0 1-1.42-.841 4.637 4.637 0 0 1-1.08-1.148A2.646 2.646 0 0 1 0 23.143V5.031c0-.503.122-.962.365-1.376.243-.414.563-.783.96-1.108.397-.325.849-.61 1.357-.857A14.894 14.894 0 0 1 5.784.597c.503-.115.95-.204 1.34-.267a24.697 24.697 0 0 1 8.062 0c.392.063.838.152 1.341.267.502.116 1.018.265 1.547.449.53.183 1.05.398 1.563.644.513.246.968.532 1.365.857.397.325.717.694.96 1.108.243.414.365.873.365 1.376v9.842a7.987 7.987 0 0 0-2.031-.786V8.018c-.614.378-1.301.697-2.063.96-.762.261-1.547.474-2.357.636a21.45 21.45 0 0 1-2.435.346c-.815.068-1.577.102-2.286.102-.719 0-1.483-.034-2.292-.102a21.484 21.484 0 0 1-2.428-.346 18.318 18.318 0 0 1-2.357-.637 10.355 10.355 0 0 1-2.063-.959v15.125zm9.14-21.13c-.602 0-1.293.03-2.07.094-.778.063-1.56.17-2.349.322-.788.152-1.544.36-2.269.621-.725.262-1.33.592-1.817.99-.148.116-.29.26-.428.433a.88.88 0 0 0-.207.558c0 .2.07.385.207.558.137.173.28.317.428.433.487.398 1.092.728 1.817.99.725.262 1.481.47 2.27.621.787.152 1.57.26 2.348.322.777.063 1.467.095 2.07.095.604 0 1.294-.032 2.071-.095a21.59 21.59 0 0 0 2.349-.322 14.765 14.765 0 0 0 2.261-.62c.72-.263 1.323-.593 1.81-.991.147-.116.293-.26.435-.433a.86.86 0 0 0 .215-.558.86.86 0 0 0-.215-.558 2.818 2.818 0 0 0-.436-.432c-.486-.399-1.09-.729-1.809-.99-.72-.263-1.473-.47-2.261-.622a21.59 21.59 0 0 0-2.349-.322 26.006 26.006 0 0 0-2.07-.095zm12.87 18.159a5.02 5.02 0 0 1 1.745.566 5.056 5.056 0 0 1 2.317 2.625c.222.566.333 1.164.333 1.793 0 .692-.135 1.344-.404 1.957a5.157 5.157 0 0 1-1.095 1.604 5.12 5.12 0 0 1-1.61 1.077 4.956 4.956 0 0 1-1.968.393H12.17a5.968 5.968 0 0 1-2.372-.472 6.169 6.169 0 0 1-1.936-1.297 6.107 6.107 0 0 1-1.31-1.918 5.82 5.82 0 0 1-.475-2.35c0-.828.158-1.61.476-2.343a6.083 6.083 0 0 1 1.309-1.926c.555-.55 1.2-.983 1.936-1.297a5.968 5.968 0 0 1 2.372-.472 6.594 6.594 0 0 1 1.428.157 5.835 5.835 0 0 1 2.087-1.603 6.096 6.096 0 0 1 2.579-.566 6.172 6.172 0 0 1 3.539 1.116 6.021 6.021 0 0 1 2.222 2.956zm-.682 8.002a3.058 3.058 0 0 0 2.158-.88c.275-.273.491-.592.65-.96.159-.366.238-.759.238-1.178 0-.42-.08-.813-.238-1.18a3.026 3.026 0 0 0-2.808-1.839h-1.016c0-.556-.106-1.077-.317-1.564a4.064 4.064 0 0 0-2.167-2.146 3.984 3.984 0 0 0-1.578-.315c-.434 0-.85.066-1.246.197a4.123 4.123 0 0 0-1.984 1.399c-.259.33-.457.7-.595 1.108a3.94 3.94 0 0 0-2.269-.691c-.56 0-1.087.104-1.579.314a4.062 4.062 0 0 0-2.166 2.146 3.886 3.886 0 0 0-.317 1.565c0 .555.106 1.077.317 1.564a4.064 4.064 0 0 0 2.166 2.146c.492.21 1.018.314 1.58.314h11.17z"/></svg>
